X: 3
T: Ookpik
R: waltz
M: 3/4
L: 1/8
K: Gmaj
DE>F ||: G3A B>d | AF3 (3DED | EG2 DC2 | B,3 A B>d | e4 e>f | ed4 B/A/ | Bd4 e | d2 g2 f2 |
| e4 e>f | ed4 B/A/ | B3d (3BAG | E4 E>D | C3D E>G | DF3 (3DED | EG3 [GC] |1 [GB,]3D E>F :||2 G3A B>d ||
|| e2 B3A | B4 (3efe | d2 B3A | B4 B | A4 A>B | AG4 D | EG4 A | G2 B2 d2 |
e4 B2 | B4 (3efe | dB4 A | B4 B | A4 A>B | AG4 D | EG-G4 | F>E D>C B,>A,||


Tune 5422	Setting 17581

